theme/universal/wizard_logo.svg

<svg width="187" height="34" viewBox="0 0 187 34" fill="none" xmlns="http://www.w3.org/2000/svg">
<path fill-rule="evenodd" clip-rule="evenodd" d="M152.717 20.5371V10.6621C152.717 10.2181 152.828 10.1071 153.272 10.1071H158.93C159.374 10.1071 159.485 10.2181 159.374 10.6621V11.9941C159.374 12.1051 159.263 12.2161 159.485 12.3271C159.596 12.4381 159.707 12.2161 159.818 12.2161C160.787 11.4834 161.828 10.8515 162.925 10.3301C164.145 9.75077 165.498 9.50708 166.843 9.62414C168.189 9.7412 169.479 10.2148 170.581 10.9961C171.24 11.4478 171.774 12.0583 172.134 12.7711C172.356 13.2151 172.467 13.1041 172.8 12.8821C174.118 11.6657 175.664 10.7229 177.349 10.1081C178.548 9.60678 179.859 9.43514 181.147 9.61096C182.434 9.78679 183.651 10.3037 184.672 11.1081C185.804 12.0254 186.555 13.3299 186.78 14.7691C186.969 15.5682 187.044 16.3901 187.002 17.2101V30.5221C187.002 30.9661 186.891 31.0771 186.447 31.0771H180.899C180.455 31.0771 180.344 30.9661 180.344 30.5221V18.6551C180.323 18.0197 180.247 17.3873 180.117 16.7651C179.784 15.5451 178.897 14.9901 177.454 14.8791C176.078 14.8522 174.725 15.2385 173.571 15.9881C173.238 16.0991 173.349 16.4321 173.349 16.6541V30.3011C173.349 31.0781 173.349 30.9671 172.683 30.9671H167.135C166.691 30.9671 166.58 30.8561 166.58 30.4121V18.6551C166.561 18.0212 166.486 17.3902 166.358 16.7691C166.025 15.5491 165.138 14.9941 163.695 14.8831C162.319 14.8562 160.966 15.2425 159.812 15.9921C159.479 16.2141 159.479 16.4361 159.479 16.7691V29.6351C159.479 30.0791 159.701 30.6351 159.368 30.9661C159.035 31.2971 158.48 31.0771 158.037 31.0771H153.266C152.822 31.0771 152.711 30.9661 152.711 30.5221L152.717 20.5371Z" fill="white"/>
<path fill-rule="evenodd" clip-rule="evenodd" d="M108.449 27.083V24.864C108.449 24.642 108.338 24.42 108.56 24.309C108.666 24.2459 108.791 24.2224 108.913 24.2427C109.035 24.263 109.146 24.3258 109.226 24.42C110.038 24.9658 110.891 25.4479 111.778 25.862C114.184 26.9121 116.839 27.2588 119.434 26.862C119.828 26.7824 120.204 26.6319 120.544 26.418C120.746 26.2988 120.909 26.1243 121.015 25.9151C121.121 25.706 121.165 25.4709 121.142 25.2377C121.118 25.0044 121.029 24.7827 120.883 24.5986C120.738 24.4146 120.543 24.276 120.322 24.199C119.395 23.8236 118.427 23.5626 117.437 23.422C115.701 23.1862 113.992 22.7775 112.337 22.202C110.932 21.6804 109.775 20.6485 109.096 19.3119C108.418 17.9754 108.268 16.4323 108.676 14.99C109.184 13.3781 110.298 12.026 111.783 11.218C113.488 10.2684 115.378 9.70027 117.324 9.55304C120.365 9.24892 123.435 9.6278 126.311 10.662C126.413 10.6754 126.512 10.7091 126.602 10.7612C126.691 10.8133 126.769 10.8828 126.831 10.9656C126.893 11.0484 126.938 11.1427 126.963 11.2431C126.988 11.3435 126.993 11.4478 126.977 11.55V15.655C126.977 15.877 127.088 16.099 126.866 16.21C126.644 16.321 126.422 16.21 126.089 16.099C125.299 15.5469 124.441 15.0992 123.537 14.767C121.536 13.946 119.341 13.7149 117.213 14.101C116.88 14.212 116.436 14.323 116.104 14.434C115.877 14.5195 115.682 14.6712 115.543 14.8694C115.404 15.0675 115.327 15.303 115.324 15.545C115.326 15.8008 115.4 16.0508 115.537 16.2665C115.675 16.4822 115.87 16.655 116.101 16.765C117.027 17.1405 117.996 17.4015 118.986 17.542C120.638 17.794 122.269 18.165 123.868 18.652C124.653 18.8737 125.379 19.2675 125.993 19.8049C126.608 20.3424 127.094 21.0099 127.418 21.759C127.994 23.0664 128.098 24.5329 127.714 25.9087C127.329 27.2845 126.48 28.4844 125.31 29.304C123.51 30.5569 121.399 31.2866 119.21 31.412C117.659 31.523 116.101 31.523 114.55 31.412C112.498 31.1957 110.484 30.7109 108.559 29.97C108.448 29.9299 108.354 29.8528 108.294 29.7517C108.233 29.6506 108.209 29.5317 108.226 29.415C108.415 28.653 108.49 27.8671 108.449 27.083Z" fill="white"/>
<path fill-rule="evenodd" clip-rule="evenodd" d="M139.071 22.7558V15.2108C139.071 14.7668 138.96 14.5448 138.516 14.5448H136.63C136.297 14.5448 136.186 14.4338 136.186 14.2118V10.4408C136.186 10.1078 136.297 9.99676 136.63 9.99676H138.63C138.963 9.99676 139.074 9.88576 139.074 9.55276C139.087 8.31249 139.274 7.08019 139.629 5.89176C139.984 4.97577 140.552 4.1567 141.284 3.5011C142.016 2.84551 142.892 2.37189 143.842 2.11876C145.655 1.67748 147.532 1.5647 149.386 1.78576C150.163 1.89676 150.939 1.89676 151.716 2.00776C152.049 2.00776 152.049 2.11876 152.049 2.45176V6.55676C152.049 7.11176 151.716 6.88976 151.494 6.88976C150.939 6.77876 150.385 6.55676 149.83 6.44576C149.017 6.31629 148.186 6.35406 147.389 6.55676C146.909 6.63799 146.472 6.88054 146.149 7.24426C145.826 7.60798 145.637 8.07103 145.614 8.55676C145.392 9.99876 145.392 9.99876 146.835 9.99876H150.163C150.496 9.99876 150.718 10.1098 150.718 10.5538V14.1038C150.718 14.4368 150.607 14.6588 150.274 14.5478H146.391C145.947 14.5478 145.836 14.6588 145.836 15.1028V30.3028C145.836 30.7468 145.725 30.9688 145.17 30.9688H139.512C139.068 30.9688 139.068 30.8578 139.068 30.5248L139.071 22.7558Z" fill="white"/>
<path fill-rule="evenodd" clip-rule="evenodd" d="M50.4212 22.7559V15.2109C50.4212 14.6559 50.3102 14.5449 49.7552 14.5449H47.9802C47.6472 14.5449 47.5362 14.4339 47.5362 14.2119V10.4409C47.5297 10.3957 47.5338 10.3495 47.5482 10.3061C47.5626 10.2628 47.587 10.2233 47.6193 10.191C47.6516 10.1587 47.6911 10.1343 47.7344 10.1199C47.7778 10.1055 47.824 10.1014 47.8692 10.1079H49.8692C50.2022 10.1079 50.3132 9.99692 50.3132 9.66392C50.3263 8.46003 50.5132 7.26435 50.8682 6.11392C51.2202 5.1257 51.825 4.24702 52.6225 3.56552C53.42 2.88402 54.3822 2.42351 55.4132 2.22992C57.1212 1.82184 58.8918 1.74647 60.6282 2.00792C61.4052 2.11892 62.1812 2.11892 62.9582 2.22992C63.2912 2.22992 63.4022 2.45192 63.4022 2.78492V6.55692C63.4022 7.11192 63.2912 7.22292 62.7362 7.00092C62.1812 6.88992 61.6272 6.66792 60.9612 6.55692C60.1114 6.42738 59.2445 6.46508 58.4092 6.66792C58.0286 6.75039 57.6799 6.94085 57.4048 7.21647C57.1297 7.49209 56.94 7.84118 56.8582 8.22192C56.7472 8.66592 56.7472 9.10992 56.6362 9.55292C56.5252 9.88592 56.7472 9.99692 57.0802 9.99692H61.2962C61.6292 9.99692 61.8512 10.1079 61.8512 10.5519V14.0979C61.8512 14.4309 61.7402 14.6529 61.4072 14.6529H57.4102C56.9662 14.6529 56.8552 14.7639 56.8552 15.2079V30.4079C56.8552 30.8519 56.7442 31.0739 56.1892 31.0739H50.5312C50.0872 31.0739 50.0872 30.9629 50.0872 30.6299C50.3599 28.0146 50.4714 25.3849 50.4212 22.7559V22.7559Z" fill="white"/>
<path fill-rule="evenodd" clip-rule="evenodd" d="M82.7078 16.5418V30.4078C82.7078 30.9628 82.5968 31.0738 82.0418 31.0738H76.6058C76.1618 31.0738 76.0508 30.9628 76.0508 30.5188V2.56281C76.0508 2.11881 76.1618 2.00781 76.6058 2.00781H82.1508C82.5948 2.00781 82.7058 2.11881 82.7058 2.67381L82.7078 16.5418Z" fill="white"/>
<path fill-rule="evenodd" clip-rule="evenodd" d="M66.3965 20.5364V10.6624C66.3965 10.2184 66.5075 10.1074 66.9515 10.1074H72.6095C72.9425 10.1074 73.1645 10.2184 73.1645 10.5514V30.5224C73.1645 30.8554 73.0535 30.9664 72.7205 30.9664H66.9515C66.5075 30.9664 66.5075 30.8554 66.5075 30.4114C66.3965 27.0824 66.3965 23.7544 66.3965 20.5364Z" fill="white"/>
<path fill-rule="evenodd" clip-rule="evenodd" d="M129.973 27.3046V24.1986C129.973 23.8656 130.084 23.6436 130.417 23.6436H136.408C136.741 23.6436 136.963 23.7546 136.963 24.0876V30.5226C136.963 30.9666 136.852 30.9666 136.408 30.9666H130.528C130.084 30.9666 129.973 30.8556 129.973 30.4116V27.3046Z" fill="white"/>
<path fill-rule="evenodd" clip-rule="evenodd" d="M69.7256 2.00781H72.7256C73.0586 2.00781 73.1696 2.11881 73.1696 2.45181V6.66781C73.1696 7.00081 73.0586 7.11181 72.7256 7.11181H66.6256C66.2926 7.11181 66.1816 7.00081 66.1816 6.66781V2.45181C66.1816 2.11881 66.2926 2.00781 66.6256 2.00781H69.7256Z" fill="white"/>
<path d="M106.672 16.3207C106.411 14.7628 105.691 13.3182 104.604 12.1718C103.518 11.0254 102.114 10.2294 100.572 9.88569C97.5661 9.08631 94.386 9.24112 91.472 10.3287C90.027 10.8246 88.7204 11.6566 87.6599 12.7562C86.5994 13.8559 85.8152 15.1917 85.372 16.6537C84.7066 18.772 84.592 21.0248 85.039 23.1997C85.2208 24.5312 85.7051 25.8033 86.4548 26.9186C87.2045 28.0339 88.1996 28.9627 89.364 29.6337C91.5808 30.8495 94.0496 31.5341 96.576 31.6337C99.8692 31.8429 103.168 31.3123 106.229 30.0807C106.562 29.9697 106.673 29.8587 106.673 29.5257V25.0857C106.673 24.5307 106.34 24.4197 105.896 24.5307C105.785 24.5307 105.674 24.6417 105.563 24.7527C104.171 25.7596 102.576 26.4498 100.889 26.7747C99.2026 27.0997 97.4651 27.0515 95.799 26.6337C94.7906 26.448 93.8649 25.9538 93.1494 25.2193C92.434 24.4849 91.9642 23.5465 91.805 22.5337C91.694 21.8677 91.694 21.8677 92.36 21.8677H106.56C106.782 21.8677 107.004 21.9787 107.004 21.5347C107.063 19.79 106.952 18.0438 106.672 16.3207V16.3207ZM99.793 17.8737H92.027C91.694 17.8737 91.694 17.7627 91.694 17.4297C91.916 14.9887 93.58 13.8797 95.799 13.6577C96.3676 13.5529 96.9526 13.5784 97.5099 13.7322C98.0673 13.886 98.5825 14.1641 99.017 14.5457C99.8002 15.3477 100.238 16.4246 100.237 17.5457C100.237 17.8737 100.02 17.8737 99.793 17.8737Z" fill="white"/>
<path d="M31.5208 4.256H10.0178C3.2978 3.7 0.497797 7.28 0.0497975 11.984C-0.00618249 12.5426 -0.00618249 13.1054 0.0497975 13.664V22.848L4.8658 17.7C4.8391 16.3458 5.23016 15.0161 5.9858 13.892C6.44122 13.1909 7.05187 12.604 7.77046 12.1767C8.48905 11.7495 9.29633 11.4933 10.1298 11.428H10.2448C10.6483 10.1249 11.3892 8.95168 12.3923 8.02723C13.3954 7.10278 14.6252 6.45999 15.9568 6.164C16.6501 5.97897 17.3681 5.90339 18.0848 5.94C19.2997 5.95212 20.496 6.24082 21.5827 6.78418C22.6694 7.32755 23.6181 8.11131 24.3568 9.076H25.0288C25.9947 9.06132 26.9418 9.34343 27.7423 9.88421C28.5427 10.425 29.1579 11.1984 29.5048 12.1H30.1768C31.1967 12.1018 32.1942 12.3988 33.0488 12.9554C33.9035 13.5119 34.5787 14.304 34.9928 15.236L40.4808 9.524L31.5208 0V4.256Z" fill="#EE2B3A"/>
<path d="M35.4407 16.2403C35.5333 16.5308 35.5713 16.8359 35.5527 17.1403V17.3643L35.6647 17.7003V17.8123C35.6692 19.2047 35.1558 20.549 34.2243 21.5839C33.2929 22.6189 32.0099 23.2706 30.6247 23.4123H29.7247C29.3676 24.3928 28.7094 25.2351 27.8443 25.8185C26.9791 26.402 25.9515 26.6966 24.9087 26.6603H24.7967C23.736 26.6876 22.7014 26.3295 21.8847 25.6523C20.9115 26.6813 19.5955 27.3187 18.1847 27.4443H17.7367C16.6995 27.4537 15.6799 27.1763 14.7905 26.6426C13.9011 26.109 13.1765 25.3399 12.6967 24.4203L12.3607 23.7483C11.8499 23.8743 11.3274 23.9467 10.8017 23.9643C9.46457 23.9204 8.17946 23.4357 7.14639 22.5857C6.11332 21.7356 5.39023 20.5679 5.08969 19.2643L0.0546875 24.3043L8.90269 33.3763V29.0083H32.4227C39.3667 28.6723 40.3747 23.1843 40.4867 20.6083V10.8643L35.4407 16.2403Z" fill="#EE2B3A"/>
<path d="M29.2804 13.1039C28.9444 13.2159 28.8324 13.1039 28.7204 12.7679C28.4654 11.8279 27.8566 11.0231 27.0215 10.522C26.1864 10.021 25.1897 9.8625 24.2404 10.0799C24.1537 10.0783 24.0686 10.0573 23.991 10.0185C23.9135 9.97979 23.8457 9.92422 23.7924 9.85588C22.9591 8.70379 21.797 7.83058 20.4585 7.35087C19.12 6.87116 17.6678 6.80737 16.2924 7.16788C15.1287 7.43622 14.0538 7.99965 13.1711 8.80391C12.2883 9.60818 11.6276 10.6262 11.2524 11.7599C11.1755 11.9735 11.0396 12.1609 10.8605 12.3004C10.6814 12.4399 10.4663 12.5257 10.2404 12.5479C7.44037 12.7729 5.42437 15.6849 5.98437 18.7089C6.10512 19.4351 6.39129 20.1238 6.82074 20.7217C7.2502 21.3196 7.81143 21.8108 8.46103 22.1571C9.11063 22.5035 9.83119 22.6958 10.567 22.7191C11.3028 22.7425 12.0341 22.5963 12.7044 22.2919C12.9284 22.1799 13.0404 22.1799 13.0404 22.4039C13.1788 22.8705 13.3665 23.321 13.6004 23.7479C14.0184 24.5818 14.684 25.2662 15.5061 25.7073C16.3281 26.1484 17.2663 26.3246 18.1924 26.2119C18.8578 26.1623 19.5041 25.9663 20.085 25.6379C20.6658 25.3094 21.1669 24.8566 21.5524 24.3119C21.7764 24.0879 21.8884 24.0879 22.1124 24.3119C22.4968 24.6857 22.9531 24.9778 23.4536 25.1703C23.9541 25.3628 24.4885 25.4518 25.0244 25.4319C25.9 25.4244 26.753 25.1532 27.4722 24.6538C28.1914 24.1543 28.7435 23.4497 29.0564 22.6319C29.1684 22.1839 29.3924 22.1839 29.7284 22.1839H30.5124C31.6359 22.0587 32.6721 21.5184 33.4179 20.669C34.1638 19.8195 34.5655 18.7221 34.5444 17.5919C34.5444 17.4799 34.4324 17.2559 34.4324 17.1439C34.4019 16.524 34.2384 15.918 33.953 15.3669C33.6675 14.8158 33.2669 14.3326 32.7781 13.9501C32.2894 13.5676 31.724 13.2948 31.1205 13.1501C30.517 13.0055 29.8894 12.9925 29.2804 13.1119" fill="white"/>
</svg>

<svg width="205" height="33" xmlns="http://www.w3.org/2000/svg">
 <g>
  <title>Layer 1</title>
  <g id="svg_21">
   <g stroke="null" id="svg_1">
    <g stroke="null" data-name="Group 111" id="svg_2">
     <g stroke="null" data-name="Group 9787" id="svg_10">
      <path stroke="null" fill-rule="evenodd" fill="#fff" d="m152.70706,20.53705l0,-9.875c0,-0.444 0.111,-0.555 0.555,-0.555l5.658,0c0.444,0 0.555,0.111 0.444,0.555l0,1.332c0,0.111 -0.111,0.222 0.111,0.333c0.111,0.111 0.222,-0.111 0.333,-0.111a17.856,17.856 0 0 1 3.107,-1.886a7.6,7.6 0 0 1 7.656,0.666a4.749,4.749 0 0 1 1.553,1.775c0.222,0.444 0.333,0.333 0.666,0.111a13.56,13.56 0 0 1 4.549,-2.774a7.288,7.288 0 0 1 7.323,1a5.883,5.883 0 0 1 2.108,3.661a8.7,8.7 0 0 1 0.222,2.441l0,13.312c0,0.444 -0.111,0.555 -0.555,0.555l-5.548,0c-0.444,0 -0.555,-0.111 -0.555,-0.555l0,-11.867a10.934,10.934 0 0 0 -0.227,-1.89c-0.333,-1.22 -1.22,-1.775 -2.663,-1.886a6.882,6.882 0 0 0 -3.883,1.109c-0.333,0.111 -0.222,0.444 -0.222,0.666l0,13.647c0,0.777 0,0.666 -0.666,0.666l-5.548,0c-0.444,0 -0.555,-0.111 -0.555,-0.555l0,-11.757a10.934,10.934 0 0 0 -0.222,-1.886c-0.333,-1.22 -1.22,-1.775 -2.663,-1.886a6.882,6.882 0 0 0 -3.883,1.109c-0.333,0.222 -0.333,0.444 -0.333,0.777l0,12.866c0,0.444 0.222,1 -0.111,1.331s-0.888,0.111 -1.331,0.111l-4.771,0c-0.444,0 -0.555,-0.111 -0.555,-0.555l0.006,-9.985z" data-name="Path 17692" id="svg_19"/>
      <path stroke="null" fill-rule="evenodd" fill="#fff" d="m108.43906,27.08305l0,-2.219c0,-0.222 -0.111,-0.444 0.111,-0.555a0.523,0.523 0 0 1 0.666,0.111a18.967,18.967 0 0 0 2.552,1.442a13.892,13.892 0 0 0 7.656,1a3.323,3.323 0 0 0 1.11,-0.444a1.229,1.229 0 0 0 -0.222,-2.219a12.277,12.277 0 0 0 -2.885,-0.777a26.322,26.322 0 0 1 -5.1,-1.22a5.961,5.961 0 0 1 -3.661,-7.212a6.532,6.532 0 0 1 3.107,-3.772a13.474,13.474 0 0 1 5.541,-1.665a20.521,20.521 0 0 1 8.987,1.109a0.775,0.775 0 0 1 0.666,0.888l0,4.105c0,0.222 0.111,0.444 -0.111,0.555s-0.444,0 -0.777,-0.111a11.179,11.179 0 0 0 -2.552,-1.332a11.331,11.331 0 0 0 -6.324,-0.666c-0.333,0.111 -0.777,0.222 -1.109,0.333a1.206,1.206 0 0 0 -0.78,1.111a1.364,1.364 0 0 0 0.777,1.22a12.277,12.277 0 0 0 2.885,0.777a34.7,34.7 0 0 1 4.882,1.11a5.492,5.492 0 0 1 3.55,3.107a6.174,6.174 0 0 1 -2.108,7.545a11.863,11.863 0 0 1 -6.1,2.108a32.66,32.66 0 0 1 -4.66,0a23.566,23.566 0 0 1 -5.991,-1.442a0.513,0.513 0 0 1 -0.333,-0.555a7.937,7.937 0 0 0 0.223,-2.332z" data-name="Path 17693" id="svg_18"/>
      <path stroke="null" fill-rule="evenodd" fill="#fff" d="m139.06106,22.75605l0,-7.545c0,-0.444 -0.111,-0.666 -0.555,-0.666l-1.886,0c-0.333,0 -0.444,-0.111 -0.444,-0.333l0,-3.771c0,-0.333 0.111,-0.444 0.444,-0.444l2,0c0.333,0 0.444,-0.111 0.444,-0.444a13.282,13.282 0 0 1 0.555,-3.661a6.246,6.246 0 0 1 4.213,-3.773a15.621,15.621 0 0 1 5.544,-0.333c0.777,0.111 1.553,0.111 2.33,0.222c0.333,0 0.333,0.111 0.333,0.444l0,4.105c0,0.555 -0.333,0.333 -0.555,0.333c-0.555,-0.111 -1.109,-0.333 -1.664,-0.444a6.048,6.048 0 0 0 -2.441,0.111a2.134,2.134 0 0 0 -1.775,2c-0.222,1.442 -0.222,1.442 1.221,1.442l3.328,0c0.333,0 0.555,0.111 0.555,0.555l0,3.55c0,0.333 -0.111,0.555 -0.444,0.444l-3.883,0c-0.444,0 -0.555,0.111 -0.555,0.555l0,15.2c0,0.444 -0.111,0.666 -0.666,0.666l-5.658,0c-0.444,0 -0.444,-0.111 -0.444,-0.444l0.003,-7.769z" data-name="Path 17694" id="svg_17"/>
      <path stroke="null" fill-rule="evenodd" fill="#fff" d="m50.41206,22.75605l0,-7.545c0,-0.555 -0.111,-0.666 -0.666,-0.666l-1.775,0c-0.333,0 -0.444,-0.111 -0.444,-0.333l0,-3.771a0.294,0.294 0 0 1 0.333,-0.333l2,0c0.333,0 0.444,-0.111 0.444,-0.444a12.5,12.5 0 0 1 0.555,-3.55a6,6 0 0 1 4.545,-3.884a13.678,13.678 0 0 1 5.215,-0.222c0.777,0.111 1.553,0.111 2.33,0.222c0.333,0 0.444,0.222 0.444,0.555l0,3.772c0,0.555 -0.111,0.666 -0.666,0.444c-0.555,-0.111 -1.109,-0.333 -1.775,-0.444a6.6,6.6 0 0 0 -2.552,0.111a2.025,2.025 0 0 0 -1.551,1.554c-0.111,0.444 -0.111,0.888 -0.222,1.331c-0.111,0.333 0.111,0.444 0.444,0.444l4.216,0c0.333,0 0.555,0.111 0.555,0.555l0,3.546c0,0.333 -0.111,0.555 -0.444,0.555l-3.997,0c-0.444,0 -0.555,0.111 -0.555,0.555l0,15.2c0,0.444 -0.111,0.666 -0.666,0.666l-5.658,0c-0.444,0 -0.444,-0.111 -0.444,-0.444a64.136,64.136 0 0 0 0.334,-7.874z" data-name="Path 17695" id="svg_16"/>
      <path stroke="null" fill-rule="evenodd" fill="#fff" d="m82.69806,16.54205l0,13.866c0,0.555 -0.111,0.666 -0.666,0.666l-5.436,0c-0.444,0 -0.555,-0.111 -0.555,-0.555l0,-27.956c0,-0.444 0.111,-0.555 0.555,-0.555l5.545,0c0.444,0 0.555,0.111 0.555,0.666l0.002,13.868z" data-name="Path 17696" id="svg_15"/>
      <path stroke="null" fill-rule="evenodd" fill="#fff" d="m66.38806,20.53705l0,-9.874c0,-0.444 0.111,-0.555 0.555,-0.555l5.658,0c0.333,0 0.555,0.111 0.555,0.444l0,19.971c0,0.333 -0.111,0.444 -0.444,0.444l-5.769,0c-0.444,0 -0.444,-0.111 -0.444,-0.555c-0.111,-3.329 -0.111,-6.657 -0.111,-9.875z" data-name="Path 17697" id="svg_14"/>
      <path stroke="null" fill-rule="evenodd" fill="#fff" d="m129.96306,27.30505l0,-3.106c0,-0.333 0.111,-0.555 0.444,-0.555l5.991,0c0.333,0 0.555,0.111 0.555,0.444l0,6.435c0,0.444 -0.111,0.444 -0.555,0.444l-5.88,0c-0.444,0 -0.555,-0.111 -0.555,-0.555l0,-3.107z" data-name="Path 17698" id="svg_13"/>
      <path stroke="null" fill-rule="evenodd" fill="#fff" d="m69.71706,2.00805l3,0c0.333,0 0.444,0.111 0.444,0.444l0,4.216c0,0.333 -0.111,0.444 -0.444,0.444l-6.1,0c-0.333,0 -0.444,-0.111 -0.444,-0.444l0,-4.216c0,-0.333 0.111,-0.444 0.444,-0.444l3.1,0z" data-name="Path 17699" id="svg_12"/>
      <path stroke="null" fill="#fff" d="m106.66306,16.32105a7.936,7.936 0 0 0 -6.1,-6.435a15,15 0 0 0 -9.1,0.443a9.646,9.646 0 0 0 -6.1,6.325a13.067,13.067 0 0 0 -0.333,6.546a8.8,8.8 0 0 0 4.325,6.434a16.336,16.336 0 0 0 7.212,2a22.108,22.108 0 0 0 9.653,-1.553c0.333,-0.111 0.444,-0.222 0.444,-0.555l0,-4.44c0,-0.555 -0.333,-0.666 -0.777,-0.555c-0.111,0 -0.222,0.111 -0.333,0.222a11.772,11.772 0 0 1 -9.764,1.881a4.951,4.951 0 0 1 -3.994,-4.1c-0.111,-0.666 -0.111,-0.666 0.555,-0.666l14.2,0c0.222,0 0.444,0.111 0.444,-0.333a26.893,26.893 0 0 0 -0.332,-5.214zm-6.879,1.553l-7.766,0c-0.333,0 -0.333,-0.111 -0.333,-0.444c0.222,-2.441 1.886,-3.55 4.105,-3.772a3.826,3.826 0 0 1 3.218,0.888a4.287,4.287 0 0 1 1.22,3c0,0.328 -0.217,0.328 -0.444,0.328z" data-name="Path 17700" id="svg_11"/>
     </g>
     <g stroke="null" data-name="Group 108" id="svg_3">
      <g stroke="null" data-name="Group 9761" id="svg_8">
       <path stroke="null" fill="#ee2b3a" d="m31.51302,4.256l-21.503,0c-6.72,-0.556 -9.52,3.024 -9.968,7.728a8.424,8.424 0 0 0 0,1.68l0,9.184l4.816,-5.148a6.593,6.593 0 0 1 1.12,-3.808a5.449,5.449 0 0 1 4.144,-2.464l0.115,0a7.737,7.737 0 0 1 5.712,-5.264a6.89,6.89 0 0 1 2.128,-0.224a8,8 0 0 1 6.272,3.136l0.672,0a4.719,4.719 0 0 1 4.476,3.024l0.672,0a5.28,5.28 0 0 1 4.816,3.136l5.488,-5.712l0,0l-8.96,-9.524l0,4.256z" data-name="Path 17668" id="svg_9"/>
      </g>
      <g stroke="null" data-name="Group 9764" id="svg_5">
       <g stroke="null" data-name="Group 9763" id="svg_6">
        <path stroke="null" fill="#ee2b3a" d="m35.43201,16.24002a2.466,2.466 0 0 1 0.112,0.9l0,0.224l0.112,0.336l0,0.112a5.611,5.611 0 0 1 -5.04,5.6l-0.9,0a4.942,4.942 0 0 1 -4.816,3.248l-0.112,0a4.385,4.385 0 0 1 -2.912,-1.008a5.8,5.8 0 0 1 -3.7,1.792l-0.448,0a5.627,5.627 0 0 1 -5.04,-3.024l-0.336,-0.672a7.566,7.566 0 0 1 -1.559,0.216a6.066,6.066 0 0 1 -5.712,-4.7l-5.035,5.04l0,0l8.848,9.072l0,-4.368l23.52,0c6.944,-0.336 7.952,-5.824 8.064,-8.4l0,0l0,-9.744l-5.046,5.376z" data-name="Path 17671" id="svg_7"/>
       </g>
      </g>
      <path stroke="null" fill="#fff" d="m29.27301,13.10404c-0.336,0.112 -0.448,0 -0.56,-0.336a3.77,3.77 0 0 0 -4.48,-2.688a0.582,0.582 0 0 1 -0.448,-0.224a7.05,7.05 0 0 0 -7.5,-2.688a6.955,6.955 0 0 0 -5.04,4.592a1.2,1.2 0 0 1 -1.012,0.788c-2.8,0.225 -4.816,3.137 -4.256,6.161a4.8,4.8 0 0 0 6.72,3.583c0.224,-0.112 0.336,-0.112 0.336,0.112a6.851,6.851 0 0 0 0.56,1.344a4.525,4.525 0 0 0 4.592,2.464a4.528,4.528 0 0 0 3.36,-1.9c0.224,-0.224 0.336,-0.224 0.56,0a3.966,3.966 0 0 0 2.912,1.12a4.357,4.357 0 0 0 4.032,-2.8c0.112,-0.448 0.336,-0.448 0.672,-0.448l0.784,0a4.535,4.535 0 0 0 4.032,-4.592c0,-0.112 -0.112,-0.336 -0.112,-0.448a4.325,4.325 0 0 0 -5.152,-4.032" data-name="Path 17674" id="svg_4"/>
     </g>
    </g>
   </g>
   <rect opacity="0" stroke-width="0" stroke="#000" id="svg_20" height="31.40429" width="18.0862" y="0.57486" x="187.37368" fill="#fff"/>
  </g>
 </g>

</svg>
